bts/portfolio.svg

<svg xmlns="http://www.w3.org/2000/svg" viewBox="0 0 32 32" fill="none" stroke="currentcolor" stroke-linecap="round" stroke-linejoin="round" stroke-width="2" height="1em" width="1em">
  <path d="M29 17v11H3V17M2 8h28v8s-6 4-14 4-14-4-14-4V8Zm14 14v-4m4-10s0-4-4-4-4 4-4 4"/>
</svg>

<svg xmlns="http://www.w3.org/2000/svg" viewBox="0 0 32 32" fill="none" stroke="currentcolor" stroke-linecap="round" stroke-linejoin="round" stroke-width="2" height="1em" width="1em">
  <path d="M29 17 L29 28 3 28 3 17 M2 8 L30 8 30 16 C30 16 24 20 16 20 8 20 2 16 2 16 L2 8 Z M16 22 L16 18 M20 8 C20 8 20 4 16 4 12 4 12 8 12 8"/>
</svg>
